symbolic/status/sensors-fan-symbolic.svg

<svg xmlns="http://www.w3.org/2000/svg" width="16" height="16" version="1.1">
 <path style="fill:#dfdfdf" d="M 1,0 C 0.446,0 0,0.446 0,1 V 15 C 0,15.554 0.446,16 1,16 H 15 C 15.554,16 16,15.554 16,15 V 1 C 16,0.446 15.554,0 15,0 Z M 1.5,1 A 0.5,0.5 0 0 1 2,1.5 0.5,0.5 0 0 1 1.5,2 0.5,0.5 0 0 1 1,1.5 0.5,0.5 0 0 1 1.5,1 Z M 8,1 A 7,7 0 0 1 15,8 7,7 0 0 1 8,15 7,7 0 0 1 1,8 7,7 0 0 1 8,1 Z M 14.5,1 A 0.5,0.5 0 0 1 15,1.5 0.5,0.5 0 0 1 14.5,2 0.5,0.5 0 0 1 14,1.5 0.5,0.5 0 0 1 14.5,1 Z M 9.002,2.1016 C 8.4489,2.1005 8.0001,2.5485 8,3.1016 V 5 A 3,3 0 0 1 10.344,6.1289 C 11.133,5.9584 11.799,5.8013 12.473,5.6426 13.367,5.4318 13.006,4.6531 12.648,4.2129 11.775,3.1393 10.557,2.3994 9.2012,2.1211 9.1356,2.1079 9.0688,2.1015 9.002,2.1016 Z M 5.0137,2.9727 C 4.7376,2.9958 4.433,3.1749 4.2129,3.3535 3.1393,4.2271 2.3994,5.445 2.1211,6.8008 2.1081,6.8668 2.1016,6.9331 2.1016,7 2.1006,7.5531 2.5486,8.0019 3.1016,8.002 H 5 A 3,3 0 0 1 6.1289,5.6582 C 5.9584,4.8687 5.8013,4.2028 5.6426,3.5293 5.5371,3.0822 5.2897,2.9495 5.0137,2.9727 Z M 8,6 A 2,2 0 0 0 6,8 2,2 0 0 0 8,10 2,2 0 0 0 10,8 2,2 0 0 0 8,6 Z M 10.998,7.998 A 3,3 0 0 1 9.8691,10.342 C 10.04,11.131 10.197,11.797 10.355,12.471 10.566,13.365 11.345,13.004 11.785,12.646 12.859,11.773 13.599,10.555 13.877,9.1992 13.89,9.1332 13.897,9.0669 13.896,9 13.897,8.4469 13.45,7.9981 12.896,7.998 Z M 5.6543,9.873 C 4.8648,10.044 4.1989,10.201 3.5254,10.359 2.6312,10.57 2.9924,11.349 3.3496,11.789 4.2232,12.863 5.4411,13.603 6.7969,13.881 6.8629,13.894 6.9292,13.9 6.9961,13.9 7.5492,13.901 7.9979,13.453 7.998,12.9 V 11.002 A 3,3 0 0 1 5.6543,9.873 Z M 1.5,14 A 0.5,0.5 0 0 1 2,14.5 0.5,0.5 0 0 1 1.5,15 0.5,0.5 0 0 1 1,14.5 0.5,0.5 0 0 1 1.5,14 Z M 14.5,14 A 0.5,0.5 0 0 1 15,14.5 0.5,0.5 0 0 1 14.5,15 0.5,0.5 0 0 1 14,14.5 0.5,0.5 0 0 1 14.5,14 Z"/>
</svg>

<svg xmlns="http://www.w3.org/2000/svg" width="16" height="16"><path d="M1 0C.446 0 0 .446 0 1v14c0 .554.446 1 1 1h14c.554 0 1-.446 1-1V1c0-.554-.446-1-1-1zm.5 1a.5.5 0 0 1 .5.5.5.5 0 0 1-.5.5.5.5 0 0 1-.5-.5.5.5 0 0 1 .5-.5zM8 1a7 7 0 0 1 7 7 7 7 0 0 1-7 7 7 7 0 0 1-7-7 7 7 0 0 1 7-7zm6.5 0a.5.5 0 0 1 .5.5.5.5 0 0 1-.5.5.5.5 0 0 1-.5-.5.5.5 0 0 1 .5-.5zM9.002 2.102a1 1 0 0 0-1.002 1V5a3 3 0 0 1 2.344 1.129c.789-.17 1.455-.328 2.129-.486.894-.211.533-.99.175-1.43A5.999 5.999 0 0 0 9.201 2.12a1.003 1.003 0 0 0-.199-.02zm-3.988.87c-.276.024-.581.203-.801.381A6.002 6.002 0 0 0 2.12 6.801a1 1 0 0 0 .98 1.201H5a3 3 0 0 1 1.129-2.344c-.17-.79-.328-1.455-.486-2.129-.106-.447-.353-.58-.63-.556zM8 6a2 2 0 0 0-2 2 2 2 0 0 0 2 2 2 2 0 0 0 2-2 2 2 0 0 0-2-2zm2.998 1.998a3 3 0 0 1-1.129 2.344c.171.789.328 1.455.486 2.129.211.894.99.533 1.43.175a5.995 5.995 0 0 0 2.092-3.447 1 1 0 0 0-.981-1.201zM5.654 9.873c-.79.171-1.455.328-2.129.486-.894.211-.533.99-.175 1.43a5.998 5.998 0 0 0 3.447 2.092 1 1 0 0 0 1.201-.981v-1.898a3 3 0 0 1-2.344-1.129zM1.5 14a.5.5 0 0 1 .5.5.5.5 0 0 1-.5.5.5.5 0 0 1-.5-.5.5.5 0 0 1 .5-.5zm13 0a.5.5 0 0 1 .5.5.5.5 0 0 1-.5.5.5.5 0 0 1-.5-.5.5.5 0 0 1 .5-.5z" fill="#f8f8f2"/></svg>
